proprietary/assets/icons/activiteiten/wachtend-persoon.svg

<svg viewBox="0 0 64 64" xmlns="http://www.w3.org/2000/svg"><path d="m0 0h64v64h-64z" fill="none"/><path d="m48.33 4.67a7.06 7.06 0 1 0 7.06 7.06 7.07 7.07 0 0 0 -7.06-7.06zm3.67 7.88s-4.38.32-4.41.31a.83.83 0 0 1 -.74-.83l.33-4.58a.48.48 0 0 1 .52-.45.5.5 0 0 1 .5.47l.28 3.89 3.52.34c.31 0 .5.15.5.42s-.19.4-.5.43z"/><path d="m19.26 22.81c2.72-.88 3.67-3.25 2.79-5.92-1-3-3.2-4.14-5.85-3.28s-3.64 3.32-2.73 6.06c.96 2.9 3.08 4.02 5.79 3.14z"/><path d="m40.17 36.33c-2.49-2.82-3.41-2.74-7-1.57-1.94.66-4 1.5-6 2.33-1.45-4.71-2.94-8.64-2.94-8.64-2.13-6.45-10.4-4.3-9.23 1.64.83 4.11 2.27 9.86 3.27 13.2.64 2.16 2.92 3.57 6 3 2.24-.4 9.8-1.94 9.8-1.94s2.2 7.37 3.49 11.37 4.53 3.62 5.42 3.43l-3.63-18.5c0-.06.27-.09.39.19.77 1.73 3.45 7.35 3.45 7.35s.45.42.82.73c3.49 2.9 5.06 1.38 5.82.83a107.61 107.61 0 0 0 -9.66-13.42z"/><path d="m32 46.52s-3.22.64-7.66 1.45c-3.76.69-7.11-1.3-8-4.73l-3-12.34a1.52 1.52 0 0 0 -1.83-1.07 1.48 1.48 0 0 0 -1.08 1.79l3.05 12.38a9.25 9.25 0 0 0 3.65 5.39l-3.43 10.42h3.16l3-9.14a10.1 10.1 0 0 0 3 .44 11.17 11.17 0 0 0 2.05-.19l1-.19 3.63 9.08h3.23l-3.85-9.64 3.66-.71a1.5 1.5 0 1 0 -.58-2.94z"/></svg>

<svg xmlns="http://www.w3.org/2000/svg" viewBox="0 0 64 64"><defs><style>.cls-1{fill:none;}</style></defs><g id="BOX"><rect class="cls-1" width="64" height="64"/></g><g id="ICOON"><path d="M48.33,4.67a7.06,7.06,0,1,0,7.06,7.06A7.07,7.07,0,0,0,48.33,4.67ZM52,12.55s-4.38.32-4.41.31a.83.83,0,0,1-.74-.83l.33-4.58A.48.48,0,0,1,47.7,7a.5.5,0,0,1,.5.47l.28,3.89L52,11.7h0c.31,0,.5.15.5.42S52.31,12.52,52,12.55Z"/><path d="M19.26,22.81c2.72-.88,3.67-3.25,2.79-5.92-1-3-3.2-4.14-5.85-3.28s-3.64,3.32-2.73,6.06C14.43,22.57,16.55,23.69,19.26,22.81Z"/><path d="M40.17,36.33c-2.49-2.82-3.41-2.74-7-1.57-1.94.66-4,1.5-6,2.33-1.45-4.71-2.94-8.64-2.94-8.64C22.1,22,13.83,24.15,15,30.09c.83,4.11,2.27,9.86,3.27,13.2.64,2.16,2.92,3.57,6,3,2.24-.4,9.8-1.94,9.8-1.94s2.2,7.37,3.49,11.37,4.53,3.62,5.42,3.43L39.35,40.65c0-.06.27-.09.39.19.77,1.73,3.45,7.35,3.45,7.35s.45.42.82.73c3.49,2.9,5.06,1.38,5.82.83A107.61,107.61,0,0,0,40.17,36.33Z"/><path d="M32,46.52s-3.22.64-7.66,1.45c-3.76.69-7.11-1.3-8-4.73L13.34,30.9a1.52,1.52,0,0,0-1.83-1.07,1.48,1.48,0,0,0-1.08,1.79L13.48,44a9.25,9.25,0,0,0,3.65,5.39L13.7,59.81h3.16l3-9.14a10.1,10.1,0,0,0,3,.44,11.17,11.17,0,0,0,2.05-.19l1-.19,3.63,9.08h3.23l-3.85-9.64,3.66-.71A1.5,1.5,0,1,0,32,46.52Z"/></g></svg>
